!!!COM: Distler, Hugo
!!!CDT: 1908-1942
!!!LAR: Luther, Martin
!!!OPR@@DE: Der Jahrkreis
!!!OPR@EN: The Year Cycle
!!!OTL@@DE: Maria durch ein' Dornwald ging
!!!OTL@EN: Mary walks amid the thorns
!!!OPS: 5
!!!ONM: 2
**kern	**text	**kern	**text	**kern	**text	**text
*part3	*part3	*part2	*part2	*part1	*part1	*part1
*staff3	*staff3	*staff2	*staff2	*staff1	*staff1	*staff1
*Ibass	*	*Isoprn	*	*Isoprn	*	*
*clefF4	*	*clefG2	*	*clefG2	*	*
*k[b-e-]	*	*k[b-e-]	*	*k[b-e-]	*	*
*M4/4	*	*M4/4	*	*M4/4	*	*
*MM80	*	*MM80	*	*MM80	*	*
*	*v:1	*	*v:1	*	*v:1	*v:2
4r	.	4r	.	4d	Ma-	Was
=1	=1	=1	=1	=1	=1	=1
1r	.	1r	.	4g.	ri-	trug
.	.	.	.	8a	a	Ma-
.	.	.	.	4b-	durch	ri-
.	.	.	.	4dd	ein'	a
=2	=2	=2	=2	=2	=2	=2
1r	.	1r	.	4b-	Dorn-	unter
.	.	.	.	8aL(	wald	ihr-
.	.	.	.	8gJ)	-	em
.	.	.	.	2a,	ging,	Herzen?
=3	=3	=3	=3	=3	=3	=3
4G	Ky-	4.d	Ky-	4b-	Ky-	Ky-
8A	ri-	.	.	8b-	ri-	ri-
8F	e-	8f	ri-	8b-	e-	e-
2G	lei-	8fL(	e-	2cc	lei-	lei-
.	.	8eJ-)	.	.	.	.
.	.	4b-	lei-	.	.	.
=4	=4	=4	=4	=4	=4	=4
*M6/4	*	*M6/4	*	*M6/4	*	*
1G	son!	2a(	son!_	1dd	son!	son!
.	.	2g)	.	.	.	.
2r	.	4r	.	4r	.	.
.	.	4b-	Ma-	8b-L(	Ma-	Ein_
.	.	.	.	8ccJ)	.	.
=5	=5	=5	=5	=5	=5	=5
*M4/4	*	*M4/4	*	*M4/4	*	*
1r	.	4a	ri-	4.dd	ri-	klei-
.	.	4.a,	a,	.	.	.
.	.	.	.	8dd	a	nes
.	.	.	.	4dd	durch	Kind-
.	.	8a	Ma-	.	.	.
.	.	4a	ri-	4ff	ein'	lein
=6	=6	=6	=6	=6	=6	=6
1r	.	4a	a	4.cc	Dorn-	oh-
.	.	8a	durch	.	.	.
.	.	8a	ein'	8b-	wald	ne
.	.	4.g(	Dorn-	4cc,	ging,	Schmerzen,
.	.	.	.	4dd	der	das
.	.	8f	.	.	.	.
=7	=7	=7	=7	=7	=7	=7
1r	.	4e-	.	4.b-	hat	trug
.	.	2d)	.	.	.	.
.	.	.	.	8a	in	Ma-
.	.	.	.	8b-	sie-	ri-
.	.	.	.	8b-	ben	a
.	.	4c	wald	8cc	Jahr'n	un-
.	.	.	.	8b-	kein	ter
=8	=8	=8	=8	=8	=8	=8
1r	.	1d,	ging.	4.a	Laub	ihr-
.	.	.	.	8g	ge-	em,
.	.	.	.	2a,	trag'n.	Herzen.
=9	=9	=9	=9	=9	=9	=9
4c	Je-	4e	Je-	4.g	Je-	Je-
2A	sus	4.d	sus	.	.	.
.	.	.	.	8a	sus	sus
.	.	.	.	4b-	und	und
.	.	8g	und	.	.	.
8A	und	4g	Ma-	4dd	Ma-	Ma-
8G	Ma-	.	.	.	.	.
=10	=10	=10	=10	=10	=10	=10
4E-(	ri-	8gL(	ri-	4.b-(	ri-	ri-
.	.	8a	.	.	.	.
4F	.	8g	.	.	.	.
.	.	8fJ)	.	8a)	.	.
4G)	a!	4g	a!	4g	a!	a!
=||	=||	=||	=||	=||	=||	=||
*	*v:3	*	*v:3	*	*v:3	*
4B-	Da	4d	Da	4d	Da	.
=11	=11	=11	=11	=11	=11	=11
4A	ha-	4d	ha-	4g	ha-	.
8G	ben	8e	ben	8g	ben	.
8F	die	8f	die	8a	die	.
4E-	Dor-	4g	Dor-	4b-	Dor-	-
4BB-	nen	4f	nen	4dd	nen	-
=12	=12	=12	=12	=12	=12	=12
*M6/4	*	*M6/4	*	*M6/4	*	*
4F	Ro-	4f	Ro-	8cc(	Ro-	.
.	.	.	.	8b-)	.	.
8F	sen	8e	sen	8a	sen	.
8F	ge-	8d	ge-	8g	ge-	.
2G	tra-	2e	tra-	2d	tra-	.
2D,	gen.	2f#,	gen.	2a,	gen.	.
=13	=13	=13	=13	=13	=13	=13
*M4/4	*	*M4/4	*	*M4/4	*	*
4d	.	4a	Ky-	4b-	Ky-	.
8d	.	8g	ri-	8b-	ri-	.
8d	.	8f	e-	8b-	e-	.
2c	.	4g(	lei	2cc	lei-	.
.	.	4a)	.	.	.	.
=14	=14	=14	=14	=14	=14	=14
2G	son!	2b	son!	2dd	son!	.
2r	.	4r	.	4r	.	.
.	.	4g[	Als_	8b-	Als	.
.	.	.	.	8cc	das	.
=15	=15	=15	=15	=15	=15	=15
1r	.	8g]	.	2dd	Kind-	.
.	.	8g	das	.	.	.
.	.	4b-X	Kind-	.	.	.
.	.	4a	lein	4dd	lein	.
.	.	8g	durch	8dd	durch	.
.	.	8f	den	8ff	den	.
=	=	=	=	=	=	=
*M3/4	*	*M3/4	*	*M3/4	*	*
2.r	.	8g	Wald	8cc	Wald	.
.	.	8g	ge-	8cc	ge-	.
.	.	4d,	trag'n,	4cc,	trag'n,	.
.	.	8e-X(	da_	8ff(	da_	.
.	.	8f)	.	8dd)	.	.
=	=	=	=	=	=	=
*M6/8	*	*M6/8	*	*M6/8	*	*
2.r	.	8g	ha-	8b-	ha-	.
.	.	8g	ben	8b-	ben	.
.	.	8f	die	8b-	die	.
.	.	4e-	Dor-	4cc	Dor-	.
.	.	8B-	nen	8b-	nen	.
=	=	=	=	=	=	=
*M6/4	*	*M6/4	*	*M6/4	*	*
1.r	.	4f	Ro-	4a	Ro-	.
.	.	8f	sen	8a	sen	.
.	.	8f	ge-	8dd	ge-	.
.	.	2e(	trag'n._	1a,	trag'n.	.
.	.	2d),	.	.	.	.
=	=	=	=	=	=	=
*M4/4	*	*M4/4	*	*M4/4	*	*
2c(	Je-	2e-X	Je-	4.g(	Je-	.
.	.	.	.	8a	.	.
4B-	.	4d	sus,	4b-	.	.
4A-[	.	8c(L	Je-	4cc[	.	.
.	.	8d	.	.	.	.
=	=	=	=	=	=	=
4A-])	.	8e-	.	4cc])	.	.
.	.	8fJ	.	.	.	.
4E-	sus	4.g)	.	4b-	sus	.
.	.	.	.	.	.	.
4E-	und	.	.	4a	und	.
.	.	8f	sus	.	.	.
4E-	Ma-	8e-	und	4g	Ma-	.
.	.	8d	Ma-	.	.	.
=	=	=	=	=	=	=
*	*	*^	*	*	*	*
2F	ri-	2c	2c	ri-	2a	ri-	.
2G	a	2g	2d	a!	2b	a!	.
*	*	*v	*v	*	*	*	*
==	==	==	==	==	==	==
*-	*-	*-	*-	*-	*-	*-
!!!ONB@@DE: Von dieser Motette sind alle Verse zu singen
!!!ONB@EN: All verses of this motet are to be sung
!!!YOR: Bärenreiter-Ausgabe 676
!!!YOY: 1933
!!!EFL: 2/52
!!!URL-scan: https://imslp.eu/files/imglnks/euimg/7/7d/IMSLP834545-PMLP518834-5-jahrkreis-EA--original-paper-600dpi.pdf#page=9
!!!URL-imslp:https://imslp.org/wiki/Der_Jahrkreis,_Op.5_(Distler,_Hugo)#IMSLP834545
!!!system-decoration: [(s1,s2,s3)]
!!!ENC: Fabian C. Moss
!!!END: 2023/09/13
